X:120
T:The Devil's Flute
C:W. Krug
M:2/4
L:1/16
Q:1/4=90
K:G
%%MIDI channel 1
%%MIDI program 72
%%MIDI transpose 8
%%MIDI grace 1/8
%%MIDI ratio 3 1
(3(DEF)|.G2B2 D4{EF}|.G2B2 d4|(ed).c.B cBAG|BAGF GFED{EF}|.G2B2 D4{EF}|.G2B2 d4|(ed).c.B cBAG|
BAGF G2::GA|.B2d2 g2fe|(dg)dB A2BA|GABG ABcA|BcdB A2 GA|.B2d2 g2fg|(ag)fe d2ef|
.g2Bc .d2D2|G4 z2::(3(DEF)|GFGA B2G2|AGAB c2A2|GBdg dBGg|dBGB .A2(3(DEF)|GFGA B2G2|
AGAB c2A2|GBdg dBGA|.B2TA2 .G2::d2|(gfg).e dBGB|(gfg).e d2ef|(gfg).e dBGB|
(dg).d.B .A2d2|(gfg).e dBGB|(gfg).e d2ef|(gfg).e dBGA|.B2A2 .G2:|
